X: 53
T:Liberty
M:4/4
L:1/8
Q:100
C:Traditional
R:Reel
K:D
ag|:"D"f2A2f2A2|fefg fedf|"G"g2B2g2B2|gfga gfed|"D"f2 A2 f2 A2|fefg fedf
|!
"G"gfed "A"cABc|[1"D"d2 dd d2 ag:|[2"D"d2 dd d4||"D"FGAB AGFG|ABde fed2|
FGAB AG(3FGF|!
"A"E2 EFG2A2|"D"FGAB AGFG|ABde fedf|"G"gfed "A"cABc|"D"defe d2 z2|]
